packages/suite-data/files/images/svg/404.svg

<svg xmlns="http://www.w3.org/2000/svg" width="320" height="320" viewBox="0 0 320 320">
    <g fill="none" fill-rule="nonzero">
        <path fill="#D8D9DA" d="M210.206 202.25a1.674 1.674 0 1 1 2.216-2.51l1.574 1.406c.737.656 1.38 1.218 2.051 1.79 5.342 4.541 10.604 7.978 16.313 10.07 14.035 5.142 27.11.57 38.852-17.74a1.674 1.674 0 1 1 2.819 1.808c-12.581 19.617-27.3 24.763-42.823 19.075-6.146-2.252-11.713-5.888-17.33-10.663l-.516-.442-2.015-1.776a399.91 399.91 0 0 0-1.14-1.018z"/>
        <path fill="#D8D9DA" d="M80.512 219.974c-46.3-41.32-49.506-90.725-6.109-136.194 37.13-38.9 92.895-42.912 133.176-8.646l1.62 1.407 3.087 2.693 1.38 1.22c.669.598 1.302 1.177 1.903 1.741l.321.307.398-.324a14.267 14.267 0 0 1 7.696-2.988l.529-.03c3.36-.129 6.787.896 10.005 2.803 8.549 5.105 13.09 15.918 9.938 24.92-.455 1.3-1.051 2.496-1.783 3.54l-.165.224.128.127c1.7 1.714 3.522 3.734 5.583 6.137l2.721 3.213c3.468 4.444 6.591 8.742 9.38 12.898 13.132 19.565 18.691 35.644 18.162 48.947-.373 9.347-3.3 15.873-8.581 22.622l-1.538 1.908c-6.058 7.417-13.032 12.695-21.752 14.628-11.705 2.594-24.657-1.592-38.778-13.93l-.786-.695 3.27-3.663c13.325 11.891 24.982 15.766 35.232 13.494 7.179-1.591 13.146-5.97 18.427-12.236l1.544-1.884c5.03-6.255 7.719-11.987 8.055-20.44.484-12.149-4.738-27.25-17.332-46.015-2.722-4.056-5.777-8.26-9.112-12.537l-1.32-1.562c-2.5-2.962-4.606-5.34-6.516-7.27l-.557-.556-.486.21c-1.73.688-3.668.81-5.664.46a13.772 13.772 0 0 1-10.54-9.13l-.207-.658-.246-.096c-4.028-1.587-6.629-3.368-8.406-6.216l-.26-.436c-1.985-3.467-1.989-7.897-.177-11.503l.059-.112-.16-.155a96.044 96.044 0 0 0-2.307-2.126l-4.799-4.206c-38.343-33.617-91.872-30.115-127.59 7.306-41.44 43.419-38.443 89.632 5.826 129.14a69.212 69.212 0 0 0 7.263 5.65c16.021 10.86 36.557 15.914 62.09 17.367l1.507.081c7.954.406 29.095.544 29.578.561l2.093.082c12.121.527 16.66 1.746 26.247 6.935l.81.441-2.36 4.307c-9.729-5.332-13.414-6.334-25.929-6.82l-1.541-.044c-3.307-.032-21.733-.18-29.148-.558-27.048-1.38-48.87-6.607-66.102-18.288a74.12 74.12 0 0 1-7.777-6.051zM219.339 86.029l.38.43c2.934 3.395 4.624 6.53 5.561 10.406l.13.562c.06.28.118.564.178.888l.46 2.686 3.438 1.143c.213.075.418.148.641.229 3.187 1.152 5.838 2.62 8.558 4.804l.158.13.014-.017c.3-.473.568-1.004.798-1.584l.166-.445c2.345-6.698-1.193-15.124-7.816-19.077-2.449-1.453-4.97-2.207-7.306-2.118a9.359 9.359 0 0 0-5.248 1.874l-.112.089zm9.34 21.043l.202.211a8.822 8.822 0 0 0 4.058 2.275l.52.113.396.06-.41-.275a23.553 23.553 0 0 0-4.504-2.286l-.262-.098zM216.537 90.33l-.075.35c-.317 1.675-.082 3.432.727 4.846.736 1.282 1.803 2.292 3.391 3.204l.095.053-.06-.296-.108-.47c-.654-2.705-1.836-5.038-3.867-7.564l-.103-.123z"/>
        <path fill="#7A7F80" d="M207.605 206.832l3.376-3.566.796.731 1.01.893c.352.306.717.617 1.092.93 1.149.96 2.29 1.855 3.382 2.638a35.2 35.2 0 0 0 1.556 1.058l.488.305-2.55 4.196a37.544 37.544 0 0 1-2.355-1.568 63.186 63.186 0 0 1-3.67-2.861c-.6-.501-1.174-.996-1.712-1.472l-.97-.872-.443-.412z"/>
        <path fill="#BEBDC0" d="M191.259 199.03l-21.018-18.76 10.014-11.22 21.018 18.76z"/>
        <path fill="#D8D9DA" d="M209.241 211.595l-21.435-19.132 6.552-7.342 21.436 19.132z"/>
        <path fill="#7A7F80" d="M188.427 192.425l5.959-6.678 20.77 18.538-5.957 6.676-20.772-18.536m-1.26.072l.665.593 20.77 18.538.668.594.594-.668 5.958-6.676.595-.664-.667-.596-20.771-18.536-.664-.595-.596.666-5.958 6.676-.594.668z"/>
        <path fill="#7A7F80" d="M201.905 204.458l5.955-6.673 1.998 1.784-5.955 6.672z"/>
        <path fill="#D8D9DA" d="M198.923 207.477l-19.304-17.23 11.613-13.011 19.305 17.23z"/>
        <path fill="#7A7F80" d="M180.24 190.21l11.027-12.34 18.63 16.629-11.017 12.345-18.64-16.633m-1.26.071l.661.581 18.643 16.647.668.594.593-.665 11.02-12.346.592-.665-.666-.596-18.64-16.636-.665-.593-.596.667-11.017 12.345-.594.667z"/>
        <path fill="#FFF" d="M190.84 181.148l.39-.44a1.07 1.07 0 0 1 1.509-.09l15.708 13.914-1.099 1.24-16.508-14.624zM172.769 179.572l1.102-1.236 7.808 6.97-1.102 1.235zM211.604 207.85l3.342-3.74-3.74-3.343a5.024 5.024 0 0 0 .398 7.083z"/>
        <path fill="#BEBDC0" d="M215.294 257.859l5.62-13.947 26.126 10.53-5.62 13.946z"/>
        <path fill="#D8D9DA" d="M196.04 247.608l3.692-9.121 26.633 10.782-3.693 9.121z"/>
        <path fill="#7A7F80" d="M199.977 239.077l25.803 10.45-3.36 8.301-25.802-10.456 3.359-8.295m-.492-1.163l-.34.835-3.357 8.293-.339.836.835.34 25.805 10.447.835.34.34-.834 3.358-8.295.339-.836-.835-.34-25.814-10.45-.834-.34.007.004zM227.866 263.29l5.641-13.936 2.1.85-5.641 13.936z"/>
        <path fill="#D8D9DA" d="M204.29 255.046l6.545-16.166 23.984 9.71-6.545 16.166z"/>
        <path fill="#7A7F80" d="M211.08 239.474l23.158 9.376-6.212 15.339-23.157-9.378 6.21-15.337m-.49-1.162l-.34.834-6.212 15.339-.339.836.836.338 23.155 9.376.835.34.338-.835 6.21-15.337.34-.834-.834-.34-23.156-9.375-.835-.34.001-.002z"/>
        <path fill="#FFF" d="M210.554 242.826l.622-1.535 19.447 7.873c.547.221.811.845.59 1.392l-.22.544-20.439-8.274zM231.18 262.245l.621-1.535 9.701 3.927-.621 1.535zM198.347 243.842l1.886-4.66 4.659 1.885a5.029 5.029 0 0 1-6.545 2.775z"/>
    </g>
</svg>

<svg width="320" height="320" viewBox="0 0 320 320" fill="none" xmlns="http://www.w3.org/2000/svg">
<path d="M80.512 219.974C34.212 178.654 31.006 129.249 74.403 83.78C111.533 44.88 167.298 40.868 207.579 75.134L209.199 76.541L212.286 79.234L213.666 80.454C214.335 81.052 214.968 81.631 215.569 82.195L215.89 82.502L216.288 82.178C218.503 80.4453 221.18 79.4058 223.984 79.19L224.513 79.16C227.873 79.031 231.3 80.056 234.518 81.963C243.067 87.068 247.608 97.881 244.456 106.883C244.001 108.183 243.405 109.379 242.673 110.423L242.508 110.647L242.636 110.774C244.336 112.488 246.158 114.508 248.219 116.911L250.94 120.124C254.408 124.568 257.531 128.866 260.32 133.022C273.452 152.587 279.011 168.666 278.482 181.969C278.109 191.316 275.182 197.842 269.901 204.591L268.363 206.499C262.305 213.916 255.331 219.194 246.611 221.127C234.906 223.721 221.954 219.535 207.833 207.197L207.047 206.502L210.317 202.839C223.642 214.73 235.299 218.605 245.549 216.333C252.728 214.742 258.695 210.363 263.976 204.097L265.52 202.213C270.55 195.958 273.239 190.226 273.575 181.773C274.059 169.624 268.837 154.523 256.243 135.758C253.521 131.702 250.466 127.498 247.131 123.221L245.811 121.659C243.311 118.697 241.205 116.319 239.295 114.389L238.738 113.833L238.252 114.043C236.522 114.731 234.584 114.853 232.588 114.503C230.178 114.057 227.93 112.976 226.077 111.371C224.224 109.766 222.833 107.695 222.048 105.373L221.841 104.715L221.595 104.619C217.567 103.032 214.966 101.251 213.189 98.403L212.929 97.967C210.944 94.5 210.94 90.07 212.752 86.464L212.811 86.352L212.651 86.197C211.894 85.4758 211.124 84.767 210.344 84.071L205.545 79.865C167.202 46.248 113.673 49.75 77.955 87.171C36.515 130.59 39.512 176.803 83.781 216.311C86.074 218.353 88.5003 220.241 91.044 221.961C107.065 232.821 127.601 237.875 153.134 239.328L154.641 239.409C162.595 239.815 183.736 239.953 184.219 239.97L186.312 240.052C198.433 240.579 202.972 241.798 212.559 246.987L213.369 247.428L211.009 251.735C201.28 246.403 197.595 245.401 185.08 244.915L183.539 244.871C180.232 244.839 161.806 244.691 154.391 244.313C127.343 242.933 105.521 237.706 88.289 226.025C85.5653 224.183 82.9672 222.161 80.512 219.974ZM219.339 86.029L219.719 86.459C222.653 89.854 224.343 92.989 225.28 96.865L225.41 97.427C225.47 97.707 225.528 97.991 225.588 98.315L226.048 101.001L229.486 102.144C229.699 102.219 229.904 102.292 230.127 102.373C233.314 103.525 235.965 104.993 238.685 107.177L238.843 107.307L238.857 107.29C239.157 106.817 239.425 106.286 239.655 105.706L239.821 105.261C242.166 98.563 238.628 90.137 232.005 86.184C229.556 84.731 227.035 83.977 224.699 84.066C222.8 84.1433 220.969 84.7969 219.451 85.94L219.339 86.029ZM228.679 107.072L228.881 107.283C230.006 108.391 231.407 109.176 232.939 109.558L233.459 109.671L233.855 109.731L233.445 109.456C232.03 108.535 230.52 107.768 228.941 107.17L228.679 107.072ZM216.537 90.33L216.462 90.68C216.145 92.355 216.38 94.112 217.189 95.526C217.925 96.808 218.992 97.818 220.58 98.73L220.675 98.783L220.615 98.487L220.507 98.017C219.853 95.312 218.671 92.979 216.64 90.453L216.537 90.33Z" fill="#D8D9DA"/>
<path d="M191.259 199.03L170.241 180.27L180.255 169.05L201.273 187.81L191.259 199.03Z" fill="#BEBDC0"/>
<path d="M209.241 211.595L187.806 192.463L194.358 185.121L215.794 204.253L209.241 211.595Z" fill="#D8D9DA"/>
<path d="M198.923 207.477L179.619 190.247L191.232 177.236L210.537 194.466L198.923 207.477Z" fill="#D8D9DA"/>
<path d="M215.294 257.859L220.914 243.912L247.04 254.442L241.42 268.388L215.294 257.859Z" fill="#BEBDC0"/>
<path d="M196.04 247.608L199.732 238.487L226.365 249.269L222.672 258.39L196.04 247.608Z" fill="#D8D9DA"/>
<path d="M204.29 255.046L210.835 238.88L234.819 248.59L228.274 264.756L204.29 255.046Z" fill="#D8D9DA"/>
</svg>
